Hatter-kde-dark/actions/16/format-line-spacing-normal.svg

<?xml version="1.0" encoding="UTF-8"?>
<svg viewBox="0 0 16 16" xmlns="http://www.w3.org/2000/svg">
 <defs id="defs3051">
  <style id="current-color-scheme" type="text/css">.ColorScheme-Text {
        color:#dedede;
      }</style>
 </defs>
 <path class="ColorScheme-Text" d="m5 4v1h-2-1v1 5h1 2v1h9v-3h-9v1h-2v-1h1v-2h-1v-1h2v1h9v-3h-9z" fill="currentColor"/>
</svg>

<svg xmlns="http://www.w3.org/2000/svg" viewBox="0 0 16 16">
  <defs id="defs3051">
    <style type="text/css" id="current-color-scheme">
      .ColorScheme-Text {
        color:#dedede;
      }
      </style>
  </defs>
 <path style="fill:currentColor;fill-opacity:1;stroke:none" 
       d="M 5 4 L 5 5 L 3 5 L 2 5 L 2 6 L 2 11 L 3 11 L 5 11 L 5 12 L 14 12 L 14 9 L 5 9 L 5 10 L 3 10 L 3 9 L 4 9 L 4 7 L 3 7 L 3 6 L 5 6 L 5 7 L 14 7 L 14 4 L 5 4 z "
     class="ColorScheme-Text"
     />
</svg>
